icons/svg/subway/subway_germany.svg

<?xml version="1.0" encoding="UTF-8" standalone="no"?>
<svg
   xmlns:dc="http://purl.org/dc/elements/1.1/"
   xmlns:cc="http://creativecommons.org/ns#"
   xmlns:rdf="http://www.w3.org/1999/02/22-rdf-syntax-ns#"
   xmlns:svg="http://www.w3.org/2000/svg"
   xmlns="http://www.w3.org/2000/svg"
   xmlns:sodipodi="http://sodipodi.sourceforge.net/DTD/sodipodi-0.dtd"
   xmlns:inkscape="http://www.inkscape.org/namespaces/inkscape"
   width="16"
   height="16"
   id="svg2"
   version="1.1"
   inkscape:version="0.91 r"
   sodipodi:docname="subway_germany.svg">
  <defs
     id="defs13" />
  <sodipodi:namedview
     pagecolor="#ffffff"
     bordercolor="#666666"
     borderopacity="1"
     objecttolerance="10"
     gridtolerance="10"
     guidetolerance="10"
     inkscape:pageopacity="0"
     inkscape:pageshadow="2"
     inkscape:window-width="1920"
     inkscape:window-height="1004"
     id="namedview11"
     showgrid="true"
     inkscape:zoom="52.082758"
     inkscape:cx="4.9424345"
     inkscape:cy="9.806749"
     inkscape:window-x="1680"
     inkscape:window-y="0"
     inkscape:window-maximized="1"
     inkscape:current-layer="svg2"
     showguides="false">
    <sodipodi:guide
       position="0,0"
       orientation="0,580"
       id="guide2989" />
    <sodipodi:guide
       position="580,0"
       orientation="-580,0"
       id="guide2991" />
    <sodipodi:guide
       position="580,580"
       orientation="0,-580"
       id="guide2993" />
    <sodipodi:guide
       position="0,580"
       orientation="580,0"
       id="guide2995" />
    <sodipodi:guide
       position="0,0"
       orientation="0,580"
       id="guide2997" />
    <sodipodi:guide
       position="580,0"
       orientation="-580,0"
       id="guide2999" />
    <sodipodi:guide
       position="580,580"
       orientation="0,-580"
       id="guide3001" />
    <sodipodi:guide
       position="0,580"
       orientation="580,0"
       id="guide3003" />
    <inkscape:grid
       type="xygrid"
       id="grid3013"
       empspacing="5"
       visible="true"
       enabled="true"
       snapvisiblegridlinesonly="true" />
  </sodipodi:namedview>
  <metadata
     id="metadata2975">image/svg+xmlen<rdf:RDF>
  <cc:Work
     rdf:about="">
    <dc:format>image/svg+xml</dc:format>
    <dc:type
       rdf:resource="http://purl.org/dc/dcmitype/StillImage" />
    <dc:title />
  </cc:Work>
</rdf:RDF>
</metadata>
  <rect
     y="3.7564592"
     x="3.7564592"
     style="color:#000000;clip-rule:nonzero;display:inline;overflow:visible;visibility:visible;opacity:1;isolation:auto;mix-blend-mode:normal;color-interpolation:sRGB;color-interpolation-filters:linearRGB;solid-color:#000000;solid-opacity:1;fill:#fefefe;fill-opacity:1;fill-rule:nonzero;stroke-width:0.11437072;stroke-linecap:butt;stroke-linejoin:miter;stroke-miterlimit:4;stroke-dasharray:none;stroke-dashoffset:0;stroke-opacity:1;color-rendering:auto;image-rendering:auto;shape-rendering:auto;text-rendering:auto;enable-background:accumulate"
     x1="0"
     y1="0"
     width="8.4870815"
     height="8.4870815"
     id="rect4-1" />
  <rect
     y="4.2740045"
     x="4.2740045"
     style="fill:#003399"
     x1="0"
     y1="0"
     width="7.451992"
     height="7.451992"
     id="rect4" />
  <path
     inkscape:connector-curvature="0"
     style="fill:#fefefe;fill-opacity:1"
     d="m 8.2835886,11.160175 c 0.4838317,-0.04723 0.9358465,-0.201156 1.2947912,-0.440929 0.1803817,-0.120494 0.4347892,-0.369993 0.5453922,-0.534868 0.161637,-0.2409529 0.279021,-0.5304532 0.341819,-0.8430202 0.02432,-0.1210719 0.0273,-0.3337924 0.03227,-2.3101169 l 0.0055,-2.1767661 -1.4914435,0 0,1.9930455 c 0,1.3101936 -0.00575,2.0445757 -0.01677,2.143447 C 8.9753805,9.1680935 8.9171216,9.3798069 8.8579699,9.4894234 8.783745,9.6269725 8.646801,9.7578576 8.5039207,9.8278071 8.1108293,10.020253 7.53563,9.9509621 7.2629861,9.6783183 7.1241321,9.5394644 7.0287404,9.3158753 6.9887077,9.0354344 6.9789227,8.9668885 6.9729141,8.1605924 6.9727203,6.8900452 l -3.101e-4,-2.0355704 -1.4747098,0 0,2.0613629 c 0,2.0681119 0.00396,2.2426946 0.056861,2.503963 0.1306419,0.6452663 0.5332017,1.1588373 1.1494963,1.4664853 0.4517166,0.225493 1.0364946,0.326892 1.5795312,0.273889 z"
     id="path6" />
</svg>

<svg width="16" height="16" viewBox="0 0 16 16" fill="none" xmlns="http://www.w3.org/2000/svg">
<path d="M12.2436 3.75647H3.75647V12.2436H12.2436V3.75647Z" fill="#FEFEFE"/>
<path d="M11.726 4.27402H4.27399V11.726H11.726V4.27402Z" fill="#003399"/>
<path d="M8.28357 11.1602C8.7674 11.1129 9.21942 10.959 9.57836 10.7192C9.75874 10.5987 10.0131 10.3492 10.1238 10.1844C10.2854 9.94341 10.4028 9.65391 10.4656 9.34134C10.4899 9.22027 10.4929 9.00755 10.4978 7.03123L10.5033 4.85446H9.0119V6.84751C9.0119 8.1577 9.00615 8.89208 8.99513 8.99095C8.97536 9.16808 8.9171 9.37979 8.85795 9.48941C8.78373 9.62696 8.64678 9.75784 8.5039 9.82779C8.11081 10.0202 7.53561 9.95095 7.26297 9.6783C7.12411 9.53945 7.02872 9.31586 6.98869 9.03542C6.9789 8.96688 6.97289 8.16058 6.9727 6.89003L6.97239 4.85446H5.49768V6.91582C5.49768 8.98394 5.50164 9.15852 5.55454 9.41979C5.68518 10.0651 6.08774 10.5786 6.70404 10.8863C7.15575 11.1118 7.74053 11.2132 8.28357 11.1602H8.28357Z" fill="#FEFEFE"/>
</svg>
